X:370
T: Sean McKenna's #2
S: "Music from Ireland 2" (Bulmer & Sharpley)
R: reel
M: 4/4
L: 1/8
K: G
eged B2 BA|GABG AE E2|G2 GB dBeB|dBAc BG G2|
gfed edBA|GABG AE E2|G2 GB dBeB|dBAc BG G2 :|
eaag eggd|Bdef g2 gf|eB B2 gB B2|BAGA BA A2|
eaag eggd|Bdef g2 ga|bgfa gfed|(3efg fa gfed :|
